symbolic/16x16/apps/spflashtool.svg

<svg xmlns="http://www.w3.org/2000/svg" width="16" height="16" version="1">
 <path style="fill:#b2bfd9" d="M 2.7333334,0 C 2.3270667,0 2,0.3345 2,0.75 V 12 H 13 V 0.75 C 13,0.3345 12.672933,0 12.266667,0 Z"/>
 <path style="fill:#4f4f4f" d="m 2,12 v 2.25 C 2,14.6655 2.3270667,15 2.7333334,15 H 12.266667 C 12.672933,15 13,14.6655 13,14.25 V 12 Z"/>
 <path style="fill:#73ac05" d="M 3,3 V 4 H 4 V 3 Z M 4,4 V 5 H 5 V 4 Z M 5,5 V 6 H 4 V 7 H 3 v 2 h 4 1 4 V 7 H 11 V 6 H 10 V 5 H 8 7 Z m 5,0 h 1 V 4 h -1 z m 1,-1 h 1 V 3 h -1 z m -8,6 v 2 h 4 1 4 V 10 H 8 7 Z"/>
 <rect style="fill:#f4f4f7" width="1" height="1" x="5" y="7"/>
 <rect style="fill:#f4f4f7" width="1" height="1" x="9" y="7"/>
</svg>

<svg xmlns="http://www.w3.org/2000/svg" width="16" height="16" version="1"><path style="fill:#b2bfd9" d="M2.733 0A.74.74 0 0 0 2 .75V12h11V.75a.74.74 0 0 0-.733-.75z"/><path style="fill:#4f4f4f" d="M2 12v2.25c0 .415.327.75.733.75h9.534a.74.74 0 0 0 .733-.75V12z"/><path style="fill:#73ac05" d="M3 3v1h1V3zm1 1v1h1V4zm1 1v1H4v1H3v2h9V7h-1V6h-1V5H7zm5 0h1V4h-1zm1-1h1V3h-1zm-8 6v2h9v-2H7z"/><path style="fill:#f4f4f7" d="M5 7h1v1H5zM9 7h1v1H9z"/></svg>
